X:661
T:Mrs. MacLeod
C:Joe Buchanan's Scottish Tome - Page 203.2
I:203 2
Z:Carl Allison
R:Reel
L:1/8
M:4/4
K:A
cB | "A"A2 a2 "D"fefa | "A"c2 cB "F#m"c2 cB | "A"A2 a2 "D"fefa | "E"B2 BA "E7"BdcB |
"A"A2 a2 "D"fefa | "A"c2 cB "F#m"c2 cB | "D"f2 fg fefg | "A"afec "E7"BdcB:|
"A"ABcd eAcA | "A"c2 cB "F#m"c2 cB | "A"ABcd eAcA | "E"B2 BA BdcB | 
"A"ABcd eAcA | "A"c2 cB "F#m"c2 ce | "D"f2 fg fefg | "A"afec "E7"BdcB:|

